packages/foundations/assets/icons/functional/images/transportation/airplane_inverted.svg

<svg xmlns="http://www.w3.org/2000/svg" width="32" height="32" fill="none"><path fill="#1A1C1F" fill-rule="evenodd" d="M10.787 5.379c-.3.1-.499.203-.625.326-.235.227-.374.623-.325.927.02.128.45 1.038 1.025 2.168a176 176 0 0 0 1.009 1.967c.016.017 4.178-1.374 4.23-1.415.049-.038-3.812-3.896-4.009-4.005q-.452-.252-1.305.032m11.906 4.306c-1.169.164-.664.018-8.044 2.337l-5.857 1.84-1.474-1.181c-.811-.65-1.583-1.243-1.716-1.318-.207-.117-.307-.136-.695-.136-.4 0-.515.024-.966.202-.287.114-.573.266-.651.347-.153.16-.303.482-.303.651 0 .087 2.025 5.908 2.461 7.074.223.599.772 1.286 1.36 1.707a3.73 3.73 0 0 0 2.25.717c.676 0 .803-.031 3.259-.802a100 100 0 0 1 2.093-.643c.024 0 .043 1.189.043 2.643 0 1.838.019 2.718.063 2.89.085.338.416.667.758.753.226.057.31.049.77-.073.331-.088.58-.189.695-.282.136-.109.706-1.112 2.345-4.121l2.165-3.977 2.775-.869c1.527-.478 2.945-.949 3.151-1.046.456-.216 1.004-.703 1.303-1.16.406-.619.598-1.5.485-2.228-.033-.216-.072-.403-.086-.417s-.874.255-1.913.598c-1.038.342-1.92.622-1.959.622-.35-.001-.751-.272-.905-.611-.187-.411-.114-.81.202-1.103.222-.206.332-.249 1.926-.767.809-.263 1.446-.498 1.436-.529-.033-.107-.843-.555-1.306-.723-.835-.303-1.314-.38-2.465-.4a19 19 0 0 0-1.2.005m-1.929 3.453c.878.515.983 1.686.209 2.326-.554.459-1.322.408-1.849-.122-.308-.309-.404-.55-.404-1.011 0-.339.055-.513.25-.798.372-.54 1.225-.728 1.794-.395M16.293 14.5c.543.247.801.663.799 1.287-.002.443-.081.65-.365.951-.517.55-1.418.575-1.955.054-.306-.296-.423-.578-.424-1.02-.002-.583.279-1.026.799-1.261.312-.141.849-.147 1.146-.011m-4.32 1.434c1.023.527 1.02 1.996-.004 2.497a1.36 1.36 0 0 1-1.565-.22c-.754-.681-.504-1.991.447-2.343.294-.108.847-.076 1.122.066"/></svg>

<svg width="32" height="32" viewBox="0 0 32 32" fill="none" xmlns="http://www.w3.org/2000/svg"><path d="M10.787 5.379 C 10.487 5.479,10.288 5.582,10.162 5.705 C 9.927 5.932,9.788 6.328,9.837 6.632 C 9.857 6.760,10.287 7.670,10.862 8.800 C 11.407 9.871,11.861 10.756,11.871 10.767 C 11.887 10.784,16.049 9.393,16.101 9.352 C 16.150 9.314,12.289 5.456,12.092 5.347 C 11.791 5.179,11.355 5.190,10.787 5.379 M22.693 9.685 C 21.524 9.849,22.029 9.703,14.649 12.022 L 8.792 13.862 7.318 12.681 C 6.507 12.031,5.735 11.438,5.602 11.363 C 5.395 11.246,5.295 11.227,4.907 11.227 C 4.507 11.227,4.392 11.251,3.941 11.429 C 3.654 11.543,3.368 11.695,3.290 11.776 C 3.137 11.936,2.987 12.258,2.987 12.427 C 2.987 12.514,5.012 18.335,5.448 19.501 C 5.671 20.100,6.220 20.787,6.808 21.208 C 7.487 21.693,8.212 21.924,9.058 21.925 C 9.734 21.925,9.861 21.894,12.317 21.123 C 13.444 20.770,14.386 20.480,14.410 20.480 C 14.434 20.480,14.453 21.669,14.453 23.123 C 14.453 24.961,14.472 25.841,14.516 26.013 C 14.601 26.351,14.932 26.680,15.274 26.766 C 15.500 26.823,15.584 26.815,16.044 26.693 C 16.375 26.605,16.624 26.504,16.739 26.411 C 16.875 26.302,17.445 25.299,19.084 22.290 L 21.249 18.313 24.024 17.444 C 25.551 16.966,26.969 16.495,27.175 16.398 C 27.631 16.182,28.179 15.695,28.478 15.238 C 28.884 14.619,29.076 13.738,28.963 13.010 C 28.930 12.794,28.891 12.607,28.877 12.593 C 28.864 12.579,28.003 12.848,26.964 13.191 C 25.926 13.533,25.044 13.813,25.005 13.813 C 24.655 13.812,24.254 13.541,24.100 13.202 C 23.913 12.791,23.986 12.392,24.302 12.099 C 24.524 11.893,24.634 11.850,26.228 11.332 C 27.037 11.069,27.674 10.834,27.664 10.803 C 27.631 10.696,26.821 10.248,26.358 10.080 C 25.523 9.777,25.044 9.700,23.893 9.680 C 23.321 9.671,22.781 9.673,22.693 9.685 M20.764 13.138 C 21.642 13.653,21.747 14.824,20.973 15.464 C 20.419 15.923,19.651 15.872,19.124 15.342 C 18.816 15.033,18.720 14.792,18.720 14.331 C 18.720 13.992,18.775 13.818,18.970 13.533 C 19.342 12.993,20.195 12.805,20.764 13.138 M16.293 14.500 C 16.836 14.747,17.094 15.163,17.092 15.787 C 17.090 16.230,17.011 16.437,16.727 16.738 C 16.210 17.288,15.309 17.313,14.772 16.792 C 14.466 16.496,14.349 16.214,14.348 15.772 C 14.346 15.189,14.627 14.746,15.147 14.511 C 15.459 14.370,15.996 14.364,16.293 14.500 M11.973 15.934 C 12.996 16.461,12.993 17.930,11.969 18.431 C 11.429 18.695,10.850 18.614,10.404 18.211 C 9.650 17.530,9.900 16.220,10.851 15.868 C 11.145 15.760,11.698 15.792,11.973 15.934 " fill="#1A1C1F" stroke="none" fill-rule="evenodd"></path></svg>
